Suru++-Ubuntu/animations/24/brasero-disc-35.svg

<!-- Created with Inkscape (http://www.inkscape.org/) -->
<svg width="24" height="24" version="1.0" xmlns="http://www.w3.org/2000/svg" xmlns:xlink="http://www.w3.org/1999/xlink">
 <path d="m12 1c-6.0719999 0-11 4.9280001-11 11 0 6.072 4.9280003 11 11 11 3.648549 0 6.893032-1.774081 8.894531-4.511719l-5.585937-4.039062c-0.751819 1.0134-1.950765 1.675781-3.308594 1.675781-2.277 0-4.125-1.848-4.125-4.125 1e-7 -2.277 1.848-4.125 4.125-4.125zm4.125 11c0 0.284625-0.03096 0.54796-0.08594 0.816406 0.052703-0.260861 0.08594-0.540162 0.08594-0.816406zm-0.08594 0.816406c-0.05497 0.268447-0.153397 0.526711-0.257812 0.773438 0.107222-0.251533 0.202411-0.499212 0.257812-0.773438zm6.273438 3.007813c-0.122733 0.332927-0.276546 0.628475-0.429688 0.945312 0.150419-0.311313 0.308596-0.618543 0.429688-0.945312z" style="fill-rule:evenodd;fill:#ffffff;opacity:.5"/>
 <path d="m12 1v6.875c2.277 0 4.125 1.848 4.125 4.125 0 0.918276-0.306822 1.765431-0.816406 2.449219l5.585937 4.039062c1.328136-1.818348 2.105469-4.066273 2.105469-6.488281 0-6.0719999-4.928-11-11-11z" style="fill:#ffffff"/>
</svg>

<?xml version="1.0" encoding="UTF-8" standalone="no"?>
<!-- Created with Inkscape (http://www.inkscape.org/) -->

<svg
   xmlns:dc="http://purl.org/dc/elements/1.1/"
   xmlns:cc="http://creativecommons.org/ns#"
   xmlns:rdf="http://www.w3.org/1999/02/22-rdf-syntax-ns#"
   xmlns:svg="http://www.w3.org/2000/svg"
   xmlns="http://www.w3.org/2000/svg"
   xmlns:xlink="http://www.w3.org/1999/xlink"
   xmlns:sodipodi="http://sodipodi.sourceforge.net/DTD/sodipodi-0.dtd"
   xmlns:inkscape="http://www.inkscape.org/namespaces/inkscape"
   version="1.0"
   width="24"
   height="24"
   id="svg2"
   sodipodi:docname="brasero-disc-35.svg"
   inkscape:version="0.92.2 (unknown)">
  <metadata
     id="metadata14">
    <rdf:RDF>
      <cc:Work
         rdf:about="">
        <dc:format>image/svg+xml</dc:format>
        <dc:type
           rdf:resource="http://purl.org/dc/dcmitype/StillImage" />
        <dc:title></dc:title>
      </cc:Work>
    </rdf:RDF>
  </metadata>
  <sodipodi:namedview
     pagecolor="#ffffff"
     bordercolor="#666666"
     borderopacity="1"
     objecttolerance="10"
     gridtolerance="10"
     guidetolerance="10"
     inkscape:pageopacity="0"
     inkscape:pageshadow="2"
     inkscape:window-width="1268"
     inkscape:window-height="711"
     id="namedview12"
     showgrid="false"
     inkscape:zoom="10.727273"
     inkscape:cx="-13.492492"
     inkscape:cy="11"
     inkscape:window-x="0"
     inkscape:window-y="34"
     inkscape:window-maximized="0"
     inkscape:current-layer="svg2" />
  <defs
     id="defs4">
    <linearGradient
       id="linearGradient3587-6-5">
      <stop
         id="stop3589-9-2"
         style="stop-color:#e6e6e6;stop-opacity:1"
         offset="0" />
      <stop
         id="stop3591-7-4"
         style="stop-color:#ffffff;stop-opacity:1"
         offset="1" />
    </linearGradient>
    <linearGradient
       x1="15.669166"
       y1="-2.6219723"
       x2="15.669166"
       y2="11.969362"
       id="linearGradient3170"
       xlink:href="#linearGradient3587-6-5"
       gradientUnits="userSpaceOnUse"
       gradientTransform="matrix(0.9302326,0,0,1.2359551,-11.575969,5.1536003)" />
    <linearGradient
       x1="35.007519"
       y1="23.178743"
       x2="35.007519"
       y2="4.9945626"
       id="linearGradient2457"
       xlink:href="#linearGradient3587-6-5"
       gradientUnits="userSpaceOnUse"
       gradientTransform="translate(-25.785715,-3.035714)" />
  </defs>
  <path
     d="M 12,1 C 5.9280001,1 0.99999973,5.9280001 1,12 c 0,6.072 4.9280003,11 11,11 3.648549,0 6.893032,-1.774081 8.894531,-4.511719 L 15.308594,14.449219 C 14.556775,15.462619 13.357829,16.125 12,16.125 9.723,16.125 7.875,14.277 7.875,12 7.8750001,9.723 9.723,7.875 12,7.875 Z m 4.125,11 c 0,0.284625 -0.03096,0.54796 -0.08594,0.816406 C 16.091763,12.555545 16.125,12.276244 16.125,12 Z m -0.08594,0.816406 c -0.05497,0.268447 -0.153397,0.526711 -0.257812,0.773438 0.107222,-0.251533 0.202411,-0.499212 0.257812,-0.773438 z m 6.273438,3.007813 c -0.122733,0.332927 -0.276546,0.628475 -0.429688,0.945312 0.150419,-0.311313 0.308596,-0.618543 0.429688,-0.945312 z"
     id="path3170"
     style="display:inline;overflow:visible;visibility:visible;opacity:0.5;fill:#ffffff;fill-opacity:1;fill-rule:evenodd;stroke:none;stroke-width:1.375;stroke-linecap:butt;stroke-linejoin:miter;stroke-miterlimit:4;stroke-dasharray:none;stroke-dashoffset:0;stroke-opacity:1;marker:none;marker-start:none;marker-mid:none;marker-end:none;enable-background:accumulate"
     inkscape:connector-curvature="0" />
  <path
     d="m 12,1 v 6.875 c 2.277,0 4.125,1.848 4.125,4.125 0,0.918276 -0.306822,1.765431 -0.816406,2.449219 l 5.585937,4.039062 C 22.222667,16.669933 23,14.422008 23,12 23,5.9280001 18.072,1.0000003 12,1 Z"
     id="path3288"
     style="display:inline;overflow:visible;visibility:visible;opacity:1;fill:#ffffff;fill-opacity:1;fill-rule:nonzero;stroke:none;stroke-width:1.375;stroke-linecap:butt;stroke-linejoin:miter;stroke-miterlimit:4;stroke-dasharray:none;stroke-dashoffset:0;stroke-opacity:1;marker:none;marker-start:none;marker-mid:none;marker-end:none;enable-background:accumulate"
     inkscape:connector-curvature="0" />
</svg>
